assets/plane.svg

<svg width="56" height="56" viewBox="0 0 56 56" fill="none" xmlns="http://www.w3.org/2000/svg">
<path d="M34.7625 22.9802L43.5093 20.6365C45.9202 19.9904 49.8914 20.3069 50.5169 22.6411C51.1423 24.9752 47.8626 27.2346 45.4516 27.8806L36.7049 30.2243L33.5854 44.7248C33.5331 44.9121 33.4311 45.0834 33.2897 45.2215C33.1483 45.3596 32.9724 45.4594 32.78 45.511L29.5063 46.3882C28.7813 46.5824 28.0782 46.0511 28.0966 45.3229L28.7166 34.062C28.7634 33.2127 27.9666 32.5657 27.145 32.7858L20.4902 34.569L18.7257 39.7652C18.591 40.0865 18.309 40.3298 17.9659 40.4217L15.2385 41.1525C14.5285 41.3428 13.8344 40.8366 13.8283 40.1235L14.2947 32.3468L10.0012 25.8455C9.64995 25.2248 9.99798 24.4394 10.708 24.2492L13.4354 23.5184C13.7785 23.4264 14.1443 23.4961 14.4216 23.707L18.5479 27.3249L26.2025 25.2738C26.5312 25.1857 26.6778 24.8023 26.4917 24.5174L19.7582 14.2085C19.3782 13.587 19.7214 12.7754 20.4464 12.5811L23.7201 11.7039C23.9125 11.6523 24.1148 11.6509 24.3063 11.6997C24.4978 11.7486 24.6718 11.846 24.8107 11.9821L34.7625 22.9802Z" fill="white"/>
</svg>

<svg xmlns="http://www.w3.org/2000/svg" fill="none" viewBox="0 0 56 56"><path fill="#fff" d="m34.763 22.98 8.746-2.343c2.411-.647 6.382-.33 7.008 2.004.625 2.334-2.654 4.594-5.065 5.24l-8.747 2.343-3.12 14.5a1.114 1.114 0 0 1-.295.498 1.16 1.16 0 0 1-.51.289l-3.274.877c-.725.194-1.428-.337-1.41-1.065l.62-11.261a1.25 1.25 0 0 0-1.571-1.276l-6.655 1.783-1.764 5.196a1.143 1.143 0 0 1-.76.657l-2.728.73c-.71.19-1.404-.315-1.41-1.029l.467-7.776L10 25.845c-.351-.62-.003-1.406.707-1.596l2.727-.73c.343-.093.71-.023.987.188l4.126 3.618 7.655-2.051a.5.5 0 0 0 .289-.757L19.758 14.21c-.38-.622-.037-1.434.688-1.628l3.274-.877a1.16 1.16 0 0 1 .586-.004c.192.049.366.146.505.282l9.952 10.998Z"/></svg>
